X:1
T:Title
%%score { ( 1 3 ) | ( 2 4 ) }
L:1/8
M:6/8
K:Eb
V:1 treble nm="Grand Piano"
V:3 treble 
V:2 bass 
V:4 bass 
V:1
 z3 z2[Q:1/4=84] B | B>AG G[FA][GB] | c>cc [GB]2 [GB] | [Ge]>[Ad][Ac] [GB][EG][DF] | %4
[M:5/8] E>FG [DF]2 |[M:1/8] [DB] |[M:3/4] B>A GG [FA][GB] | c>c c [GB]2 [GB] | e>d cB E[CFA] | %9
[M:5/8] [EG][EG]>[DF] E2 |[M:1/8] B |[M:3/4] B4 z2 | G3 .F3 | %13
 c->[F,Dc-] [G,Dc-][A,Dc] [B,DB][CDA] | A3 .G3 | c4 z2 | e4 z2 | z z/ E/ EE =Ac | %18
 B-[DB-] [EB-][FB-] [EB][DB] | B4 z2 | G3 .F3 | c->[F,Dc-] [G,Dc-][A,Dc] [B,DB][CDA] | A3 .G3 | %23
 c4 z2 | e4 z2 |[M:15/16] C->C-[C-=EG] [CFA]3 D3/2 |[M:5/8] E-E- E3 |] %27
V:2
 z3 z2 [E,G,E] | [E,G,E]>[E,CE][E,B,E] [E,B,E][E,B,][E,E] | %2
 [A,EA]>[A,EA][A,EA][K:bass] [E,E]2 [E,E] | [E,B,]>[E,C][E,D] [E,E][E,B,][B,,A,] | %4
[M:5/8] [C,G,C]>[F,=A,D][F,A,E] [B,,B,]2 |[M:1/8] [B,,A,] | %6
[M:3/4] [E,G,E]>[E,CE] [E,B,E][E,B,E] [E,B,][E,E] | [A,EA]>[A,EA] [A,EA][K:bass] [E,E]2 [E,E] | %8
 [=A,C_G]>[A,DG] [A,EG][B,E=G] [G,B,][K:bass][A,,_A,] |[M:5/8] [B,,B,][B,,B,]>[B,,A,] [E,G,]2 | %10
[M:1/8] [E,G,E] |[M:3/4] [E,G,E]>[E,G,] [E,G,][E,G,] [E,CE][E,B,E] | %12
 [B,,B,]>[B,,B,] [B,,B,][B,,B,] [B,,B,][B,,F,] | [B,,F,]>B,, B,,B,, B,,B,, | %14
 [E,CE]>[E,C] [E,C][E,B,E] [E,B,][E,E] | [A,EA]>[A,E] [A,E][A,E] [A,DA][A,CA] | %16
 [E,B,]>[E,B,] [E,B,] [E,E]2 [E,B,E] | [F,=A,E]>[F,A,] [F,A,][F,A,] [F,CE][F,A,E] | %18
 [B,,F,][B,,F,] [B,,G,]A, G,[B,,F,] | [E,G,E]>[E,G,] [E,G,][E,G,] [E,CE][E,B,E] | %20
 [B,,B,]>[B,,B,] [B,,B,][B,,B,] [B,,B,][B,,B,] | [B,,F,]>B,, B,,B,, B,,B,, | %22
 [E,CE]>[E,C] [E,C][E,B,E] [E,B,][E,E] | [A,EA]>[A,E] [A,E][A,E] [A,DA][A,CA] | %24
 [E,B,]2 [E,B,] [E,E]2 [E,B,] |[M:15/16] [A,,A,]->[A,,A,][G,,G,] [F,,F,]3 [B,,A,B,]3/2 | %26
[M:5/8] [E,G,B,]-[E,G,B,]- [E,G,B,]3 |] %27
V:3
 x6 | x6 | x6 | x6 |[M:5/8] x5 |[M:1/8] x |[M:3/4] x6 | x6 | x6 |[M:5/8] x5 |[M:1/8] x | %11
[M:3/4] z z/ E/ EE AG | E>E ED D[DA] | D2 z2 z2 | z z/ E/ .E2 E[GB] | z z/ A/ AA de | %16
 G>G G [GB]2 G | F4 z2 | .D2 z2 z2 | z z/ E/ EE AG | E>E ED D[DA] | D2 z2 z2 | z z/ E/ .E2 E[GB] | %23
 z z/ A/ AA de | G2 G [GB]2 [EG] |[M:15/16] .[EF]3 z3/2 z3 |[M:5/8] x5 |] %27
V:4
 x6 | x6 | x3[K:bass] x3 | x6 |[M:5/8] x5 |[M:1/8] x |[M:3/4] x6 | x3[K:bass] x3 | x5[K:bass] x | %9
[M:5/8] x5 |[M:1/8] x |[M:3/4] x6 | x6 | x6 | x6 | x6 | x6 | x6 | z2 z .B,,3 | x6 | x6 | x6 | x6 | %23
 x6 | x6 |[M:15/16] x15/2 |[M:5/8] x5 |] %27

